X: 1
T: Quadriglia Amblas!
C: N.N. (1917)
N: Arr. L. Canoro
R: tarantella
M: 6/8
L: 1/8
P: Play AABBACCA
K: D
"A"[|]\
f "A7"fg^g |\
"D"a2f fed | A2f fed | "A7"c2c B2B | "D"A2f "A7"fg^g |\
"D"a2f fed | A2f fed | "A7"cBA GFE | "D"D2 :|
"B"\
|: d ded |\
"A7"c2d B2c | "D"A2d ded | "A7"c2d B2c | "D"A2f "A7"fg^g |\
"D"a2f fed | a2f fed | "A7"cBA GFE | "D"D2 :|[K:G]
"C"\
|: B "D7"Bc^c |\
"G"d>Bz "D7"Bc^c | "G"d>Bz gag | "D7"fgf efe | "G"d2B "D7"Bc^c |\
"G"d>Bz "D7"Bc^c | d"G">Bz gag | "D7"fed cBA | "G"G2 :|

%%sep 1 1 500
%%sep 1 1 500

